resources/haticons/SVG/aurelia1.svg

<svg xmlns="http://www.w3.org/2000/svg" width="24" height="24"><path fill="#ed2b88" d="M15.716 4.636L13.49 6.122l-2.295-3.439 2.228-1.486zm1.811 10.331l3.806 5.703-4.533 3.025-4.47-6.698 4.533-3.025zm-5.71 3.81l.838 1.256-3.45 2.303-1.503-2.25 3.451-2.304zm7.596-6.507l.968-.645 1.501 2.25-2.227 1.487-.838-1.256 1.26-.84zm-.596 1.836l-.664-.995 1.26-.84.664.994zM3.792 12.593l-.753.503L.744 9.657l3.45-2.302 1.609 2.41.686 1.029zm7.721-6.639l.687 1.029-4.534 3.025L3.21 3.33 7.742.305zm3.236-.672l-1.26.84-2.295-3.438 2.228-1.487 2.295 3.439zM9.12 20.577l-.664-.995 2.697-1.8.664.995zm9.697-6.471l-.664-.995 1.26-.84.664.994zM3.792 12.593l-.686-1.028 2.697-1.8.686 1.029zm9.697-6.471l-.686-1.028 1.26-.84.686 1.028zm4.038 8.845l-4.533 3.025-.664-.995 4.533-3.025zm-6.014-9.013l.687 1.029-4.534 3.025L6.98 8.98zm-9.006-.822l.855 1.283-1.282.855-.856-1.282zm4.62 15.373l.856 1.283-1.282.855-.856-1.282zm-3.373 1.292L0 16.125 20.063 2.706 24 8.287z"/></svg>

<!-- Generated by IcoMoon.io -->
<svg version="1.1" xmlns="http://www.w3.org/2000/svg" width="24" height="24" viewBox="0 0 24 24">
<title>aurelia1</title>
<path fill="#ed2b88" d="M15.716 4.636l-2.226 1.486-2.295-3.439 2.228-1.486zM17.527 14.967l3.806 5.703-4.533 3.025-4.47-6.698 4.533-3.025zM11.817 18.777l0.838 1.256-3.45 2.303-1.503-2.25 3.451-2.304zM19.413 12.27l0.968-0.645 1.501 2.25-2.227 1.487-0.838-1.256 1.26-0.84zM18.817 14.106l-0.664-0.995 1.26-0.84 0.664 0.994zM3.792 12.593l-0.753 0.503-2.295-3.439 3.45-2.302 1.609 2.41 0.686 1.029zM11.513 5.954l0.687 1.029-4.534 3.025-4.456-6.678 4.532-3.025zM14.749 5.282l-1.26 0.84-2.295-3.438 2.228-1.487 2.295 3.439zM9.12 20.577l-0.664-0.995 2.697-1.8 0.664 0.995zM18.817 14.106l-0.664-0.995 1.26-0.84 0.664 0.994zM3.792 12.593l-0.686-1.028 2.697-1.8 0.686 1.029zM13.489 6.122l-0.686-1.028 1.26-0.84 0.686 1.028zM17.527 14.967l-4.533 3.025-0.664-0.995 4.533-3.025zM11.513 5.954l0.687 1.029-4.534 3.025-0.686-1.028zM2.507 5.132l0.855 1.283-1.282 0.855-0.856-1.282zM7.127 20.505l0.856 1.283-1.282 0.855-0.856-1.282zM3.754 21.797l-3.754-5.672 20.063-13.419 3.937 5.581z"></path>
</svg>
